X:106
T:PRESBCAT- The Presbyterian Cat
S:Single sheet issue
Q:1/4=100
L:1/4
M:C|
K:Gm
D/|G3/2^F/G3/2F/|G2zz/A/|B3/2 c/~c3/2 (B/c/)|d2zz/D/|\
G3/2^F/G3/2A/|B3/2A/B3/2A/|B3/2c/~c3/2(B/4c/4)|d3z/|(d/4e/4)|\
f3/2 (e/4d/4)e3/2 d/4c/4|~A2B3/2(c/8d/8e/4)|d3/2 (c/B/)A3/2B/|\
B3z/D/|G3/2A/B3/2A/|B3/2c/d3/2(g/4f/4)|e3/2(d/4c/4)A3/2G/|G3z/|]

